src/sections/mova-mais/media/google-play.svg

<svg viewBox="0 0 128 40" xmlns="http://www.w3.org/2000/svg" xmlns:xlink="http://www.w3.org/1999/xlink"><linearGradient id="a" gradientTransform="matrix(1 0 0 -1 0 42)" gradientUnits="userSpaceOnUse" x1="16.26" x2="21.86" y1="35.42" y2="12.43"><stop offset="0" stop-color="#006884"/><stop offset="1" stop-color="#8ad1d0"/></linearGradient><linearGradient id="b" gradientTransform="matrix(1 0 0 -1 0 42)" gradientUnits="userSpaceOnUse" x1="9.43" x2="24.68" y1="32.13" y2="23.88"><stop offset="0" stop-color="#24bbb6"/><stop offset="1" stop-color="#dbe692"/></linearGradient><linearGradient id="c" gradientTransform="matrix(1 0 0 -1 0 42)" gradientUnits="userSpaceOnUse" x1="27" x2="27" y1="18.38" y2="26.33"><stop offset="0" stop-color="#fcc072"/><stop offset="1" stop-color="#f58a5b"/></linearGradient><linearGradient id="d" gradientTransform="matrix(1 0 0 -1 0 42)" gradientUnits="userSpaceOnUse" x1="12.37" x2="24.42" y1="8.76" y2="21.03"><stop offset="0" stop-color="#712b8f"/><stop offset="1" stop-color="#ea1d27"/></linearGradient><path d="m124 40h-120a4 4 0 0 1 -4-4v-32a4 4 0 0 1 4-4h120a4 4 0 0 1 4 4v32a4 4 0 0 1 -4 4z"/><path d="m9.8 19.6v-10.5a1.1 1.1 0 0 1 1-1.1 1.49 1.49 0 0 1 1 .3l19.3 10.6a.83.83 0 0 1 0 1.6l-19.3 10.6a2 2 0 0 1 -1 .3 1.1 1.1 0 0 1 -1-1.1z" fill="url(#a)"/><path d="m22.3 19.7-11.7-11.7h.2a1.49 1.49 0 0 1 1 .3l14.2 7.8z" fill="url(#b)"/><path d="m25.9 23.2-3.6-3.6 3.7-3.7 5.1 2.8a.83.83 0 0 1 0 1.6z" fill="url(#c)"/><path d="m10.7 31.2 11.6-11.6 3.6 3.6-14.1 7.7a1.61 1.61 0 0 1 -1.1.3z" fill="url(#d)"/><g fill="#fff"><path d="m71.1 33.9a4.79 4.79 0 0 1 -1.1-1.5l1.6-.7a9.22 9.22 0 0 0 .5.8 2.47 2.47 0 0 0 1.6.8 2.29 2.29 0 0 0 1.7-.8 3.1 3.1 0 0 0 .5-1.7v-.6c-1.2 1.5-3.7 1.3-5.1-.3a4.43 4.43 0 0 1 0-5.9c1.5-1.5 3.7-1.7 5-.3v-.7h1.7v7.5a4.33 4.33 0 0 1 -1.6 3.7 3.69 3.69 0 0 1 -2.3.7 4.59 4.59 0 0 1 -2.5-1zm41.9.4 1.7-4-3-6.9h1.7l2.1 4.9 2.1-4.9h1.7l-4.6 10.9zm-8.1-3.8a2.64 2.64 0 0 1 -.7-1.9 2.27 2.27 0 0 1 .6-1.6 3.86 3.86 0 0 1 2.8-1 3.42 3.42 0 0 1 1.8.4 1.7 1.7 0 0 0 -1.8-1.7 1.85 1.85 0 0 0 -1.7 1.1l-1.5-.6a3.18 3.18 0 0 1 3.1-2 3.39 3.39 0 0 1 2.6 1 3.69 3.69 0 0 1 .8 2.6v4.2h-1.7v-.7a3.11 3.11 0 0 1 -.9.7 3.19 3.19 0 0 1 -1.4.3 3.86 3.86 0 0 1 -2-.8zm-53.3-3.6a4.15 4.15 0 0 1 4.2-4.2 4.22 4.22 0 0 1 4.2 4.2 4.2 4.2 0 1 1 -8.4 0zm9 0a4.15 4.15 0 0 1 4.2-4.2 4.22 4.22 0 0 1 4.2 4.2 4.15 4.15 0 0 1 -4.2 4.2 4.22 4.22 0 0 1 -4.2-4.2zm-20.3 2.2a6.58 6.58 0 0 1 .1-9.2 6.35 6.35 0 0 1 4.6-1.9 6.2 6.2 0 0 1 4.4 1.8l-1.2 1.3a4.47 4.47 0 0 0 -6.4.1 4.83 4.83 0 0 0 0 6.7 4.53 4.53 0 0 0 6.6.1 3.6 3.6 0 0 0 .9-2.2h-4.2v-1.8h5.9a6.15 6.15 0 0 1 .1 1.4 5.76 5.76 0 0 1 -1.6 4 6.13 6.13 0 0 1 -4.3 1.7 7.43 7.43 0 0 1 -4.9-2zm42.3.7a4.56 4.56 0 0 1 0-6 3.64 3.64 0 0 1 5.4 0 5.93 5.93 0 0 1 1.1 1.9l-5.5 2.3a2.13 2.13 0 0 0 2 1.3 2.26 2.26 0 0 0 2.1-1.2l1.5 1a2.65 2.65 0 0 0 -.5.6 4.38 4.38 0 0 1 -6.1.1zm10.4 1.2v-11.1h3.6a3.59 3.59 0 0 1 3.8 3.3 3.35 3.35 0 0 1 -3.4 3.3h-2.2v4.4h-1.8zm8.4 0v-11.1h1.7v11.1zm-22.6-.2v-12.4h1.8v12.4zm30.5-3.1a2.73 2.73 0 0 0 -1.6-.4c-1.2 0-1.9.6-1.9 1.3a1.26 1.26 0 0 0 1.4 1.1 2.09 2.09 0 0 0 2.1-2zm-51.2-.8a2.31 2.31 0 1 0 -4.6 0 2.37 2.37 0 0 0 2.3 2.5 2.43 2.43 0 0 0 2.3-2.5zm9 0a2.31 2.31 0 1 0 -4.6 0 2.31 2.31 0 1 0 4.6 0zm8.9.7a.37.37 0 0 1 .1-.3v-.9c0-.1-.1-.3-.1-.4a2.32 2.32 0 0 0 -2.1-1.7 2.43 2.43 0 0 0 -2.2 2.5 2.38 2.38 0 0 0 2.3 2.5c.8.1 1.6-.6 2-1.7zm7.3-.9 3.7-1.6a1.67 1.67 0 0 0 -1.5-.9 2.42 2.42 0 0 0 -2.2 2.5zm15.3-3.4a1.74 1.74 0 0 0 -1.9-1.7h-2v3.5h2.1a1.79 1.79 0 0 0 1.8-1.8z"/><path d="m114.3 32.3h-.1v-.1h.1-.1v.1z"/><path d="m114.3 32.3v-.1z"/><path d="m114.3 32.2v.1z"/><path d="m114.3 32.3v-.1z"/><path d="m114.4 32.2v.1z"/><path d="m114.4 32.3v-.1z"/><path d="m114.5 32.2c0 .1-.1.1 0 0z"/><path d="m114.5 32.3v-.1.1-.1.1-.1z"/><path d="m114.6 32.2h-.1.1v.1z"/><path d="m114.6 32.3v-.1z"/><path d="m38.9 10.1a2.78 2.78 0 0 1 2.9-2.9 2.66 2.66 0 0 1 2.3 1.2l-.8.5a1.81 1.81 0 0 0 -1.5-.7 1.87 1.87 0 0 0 -1.9 2 1.87 1.87 0 0 0 1.9 2 2 2 0 0 0 1.3-.5v-.9h-1.6v-.9h2.7v2.1a2.93 2.93 0 0 1 -2.3 1 2.86 2.86 0 0 1 -3-2.9z"/><path d="m45.4 12.9v-5.6h3.8v.9h-2.9v1.4h2.8v.9h-2.8v1.6h2.9v.9z"/><path d="m52 12.9v-4.7h-1.7v-.9h4.4v.9h-1.7v4.7z"/><path d="m58.1 12.9v-5.6h1v5.6z"/><path d="m61.8 12.9v-4.7h-1.7v-.9h4.4v.9h-1.7v4.7z"/><path d="m67.7 10.1a2.9 2.9 0 0 1 5.8 0 2.78 2.78 0 0 1 -2.9 2.9 2.84 2.84 0 0 1 -2.9-2.9zm4.7 0a1.81 1.81 0 0 0 -1.9-2 1.92 1.92 0 0 0 -1.9 2 1.81 1.81 0 0 0 1.9 2 1.86 1.86 0 0 0 1.9-2z"/><path d="m78.5 12.9-2.9-4v4h-1v-5.6h1l2.9 3.9v-3.9h1v5.6z"/></g></svg>

<svg id="Badges" xmlns="http://www.w3.org/2000/svg" xmlns:xlink="http://www.w3.org/1999/xlink" viewBox="0 0 128 40"><defs><style>.cls-1{fill:url(#Gradiente_sem_nome);}.cls-2{fill:url(#Gradiente_sem_nome_2);}.cls-3{fill:url(#Gradiente_sem_nome_3);}.cls-4{fill:url(#Gradiente_sem_nome_4);}.cls-5{fill:#fff;}</style><linearGradient id="Gradiente_sem_nome" x1="16.26" y1="35.42" x2="21.86" y2="12.43" gradientTransform="matrix(1, 0, 0, -1, 0, 42)" gradientUnits="userSpaceOnUse"><stop offset="0" stop-color="#006884"/><stop offset="1" stop-color="#8ad1d0"/></linearGradient><linearGradient id="Gradiente_sem_nome_2" x1="9.43" y1="32.13" x2="24.68" y2="23.88" gradientTransform="matrix(1, 0, 0, -1, 0, 42)" gradientUnits="userSpaceOnUse"><stop offset="0" stop-color="#24bbb6"/><stop offset="1" stop-color="#dbe692"/></linearGradient><linearGradient id="Gradiente_sem_nome_3" x1="27" y1="18.38" x2="27" y2="26.33" gradientTransform="matrix(1, 0, 0, -1, 0, 42)" gradientUnits="userSpaceOnUse"><stop offset="0" stop-color="#fcc072"/><stop offset="1" stop-color="#f58a5b"/></linearGradient><linearGradient id="Gradiente_sem_nome_4" x1="12.37" y1="8.76" x2="24.42" y2="21.03" gradientTransform="matrix(1, 0, 0, -1, 0, 42)" gradientUnits="userSpaceOnUse"><stop offset="0" stop-color="#712b8f"/><stop offset="1" stop-color="#ea1d27"/></linearGradient></defs><title>26_bt_google-play</title><path d="M124,40H4a4,4,0,0,1-4-4V4A4,4,0,0,1,4,0H124a4,4,0,0,1,4,4V36A4,4,0,0,1,124,40Z"/><path class="cls-1" d="M9.8,19.6V9.1a1.1,1.1,0,0,1,1-1.1,1.49,1.49,0,0,1,1,.3L31.1,18.9a.83.83,0,0,1,0,1.6L11.8,31.1a2,2,0,0,1-1,.3,1.1,1.1,0,0,1-1-1.1Z"/><path class="cls-2" d="M22.3,19.7,10.6,8h.2a1.49,1.49,0,0,1,1,.3L26,16.1Z"/><path class="cls-3" d="M25.9,23.2l-3.6-3.6L26,15.9l5.1,2.8a.83.83,0,0,1,0,1.6Z"/><path class="cls-4" d="M10.7,31.2h0L22.3,19.6l3.6,3.6L11.8,30.9a1.61,1.61,0,0,1-1.1.3Z"/><path class="cls-5" d="M71.1,33.9A4.79,4.79,0,0,1,70,32.4l1.6-.7a9.22,9.22,0,0,0,.5.8,2.47,2.47,0,0,0,1.6.8,2.29,2.29,0,0,0,1.7-.8,3.1,3.1,0,0,0,.5-1.7v-.6c-1.2,1.5-3.7,1.3-5.1-.3a4.43,4.43,0,0,1,0-5.9c1.5-1.5,3.7-1.7,5-.3h0V23h1.7v7.5a4.33,4.33,0,0,1-1.6,3.7,3.69,3.69,0,0,1-2.3.7,4.59,4.59,0,0,1-2.5-1Zm41.9.4h0l1.7-4-3-6.9h1.7l2.1,4.9,2.1-4.9h1.7l-4.6,10.9H113Zm-8.1-3.8h0a2.64,2.64,0,0,1-.7-1.9,2.27,2.27,0,0,1,.6-1.6,3.86,3.86,0,0,1,2.8-1,3.42,3.42,0,0,1,1.8.4,1.7,1.7,0,0,0-1.8-1.7,1.85,1.85,0,0,0-1.7,1.1l-1.5-.6a3.18,3.18,0,0,1,3.1-2,3.39,3.39,0,0,1,2.6,1,3.69,3.69,0,0,1,.8,2.6V31h-1.7v-.7a3.11,3.11,0,0,1-.9.7,3.19,3.19,0,0,1-1.4.3,3.86,3.86,0,0,1-2-.8ZM51.6,26.9h0a4.15,4.15,0,0,1,4.2-4.2A4.22,4.22,0,0,1,60,26.9a4.2,4.2,0,1,1-8.4,0Zm9,0h0a4.15,4.15,0,0,1,4.2-4.2A4.22,4.22,0,0,1,69,26.9a4.15,4.15,0,0,1-4.2,4.2,4.22,4.22,0,0,1-4.2-4.2ZM40.3,29.1h0a6.58,6.58,0,0,1,.1-9.2A6.35,6.35,0,0,1,45,18a6.2,6.2,0,0,1,4.4,1.8l-1.2,1.3a4.47,4.47,0,0,0-6.4.1,4.83,4.83,0,0,0,0,6.7,4.53,4.53,0,0,0,6.6.1,3.6,3.6,0,0,0,.9-2.2H45.1V24H51a6.15,6.15,0,0,1,.1,1.4,5.76,5.76,0,0,1-1.6,4,6.13,6.13,0,0,1-4.3,1.7,7.43,7.43,0,0,1-4.9-2Zm42.3.7h0a4.56,4.56,0,0,1,0-6,3.64,3.64,0,0,1,5.4,0,5.93,5.93,0,0,1,1.1,1.9L83.6,28a2.13,2.13,0,0,0,2,1.3,2.26,2.26,0,0,0,2.1-1.2l1.5,1h0a2.65,2.65,0,0,0-.5.6,4.38,4.38,0,0,1-6.1.1ZM93,31h0V19.9h3.6a3.59,3.59,0,0,1,3.8,3.3A3.35,3.35,0,0,1,97,26.5H94.8v4.4H93Zm8.4,0h0V19.9h1.7V31Zm-22.6-.2h0V18.4h1.8V30.8H78.8Zm30.5-3.1h0a2.73,2.73,0,0,0-1.6-.4c-1.2,0-1.9.6-1.9,1.3a1.26,1.26,0,0,0,1.4,1.1,2.09,2.09,0,0,0,2.1-2Zm-51.2-.8h0a2.31,2.31,0,1,0-4.6,0,2.37,2.37,0,0,0,2.3,2.5,2.43,2.43,0,0,0,2.3-2.5Zm9,0h0a2.31,2.31,0,1,0-4.6,0,2.31,2.31,0,1,0,4.6,0Zm8.9.7h0a.37.37,0,0,1,.1-.3h0v-.9c0-.1-.1-.3-.1-.4a2.32,2.32,0,0,0-2.1-1.7,2.43,2.43,0,0,0-2.2,2.5A2.38,2.38,0,0,0,74,29.3c.8.1,1.6-.6,2-1.7Zm7.3-.9h0L87,25.1a1.67,1.67,0,0,0-1.5-.9,2.42,2.42,0,0,0-2.2,2.5Zm15.3-3.4h0a1.74,1.74,0,0,0-1.9-1.7h-2v3.5h2.1A1.79,1.79,0,0,0,98.6,23.3Z"/><polygon class="cls-5" points="114.3 32.3 114.3 32.3 114.2 32.3 114.2 32.3 114.2 32.2 114.2 32.2 114.3 32.2 114.3 32.2 114.2 32.2 114.2 32.2 114.2 32.3 114.2 32.3 114.3 32.3"/><path class="cls-5" d="M114.3,32.3Zm0-.1Z"/><polygon class="cls-5" points="114.3 32.3 114.3 32.3 114.3 32.2 114.3 32.2 114.3 32.2 114.3 32.2 114.3 32.2 114.3 32.2 114.3 32.2 114.3 32.2 114.3 32.3 114.3 32.3"/><path class="cls-5" d="M114.3,32.3Zm0-.1Z"/><polygon class="cls-5" points="114.3 32.2 114.3 32.2 114.3 32.2 114.3 32.2 114.3 32.3 114.3 32.3 114.3 32.2 114.3 32.2"/><polygon class="cls-5" points="114.3 32.3 114.3 32.3 114.3 32.2 114.3 32.2 114.3 32.2 114.3 32.2 114.3 32.2 114.3 32.2 114.3 32.2 114.3 32.2 114.3 32.3 114.3 32.3"/><path class="cls-5" d="M114.3,32.3Zm0,0Z"/><path class="cls-5" d="M114.4,32.3Zm0-.1Zm0,.1Z"/><polygon class="cls-5" points="114.4 32.2 114.4 32.2 114.4 32.2 114.4 32.2 114.4 32.2 114.4 32.2 114.4 32.2 114.4 32.2 114.4 32.3 114.4 32.3 114.4 32.2"/><polygon class="cls-5" points="114.4 32.3 114.4 32.3 114.4 32.2 114.4 32.2 114.4 32.3 114.4 32.3"/><path class="cls-5" d="M114.4,32.3Zm0-.1Z"/><path class="cls-5" d="M114.4,32.3Z"/><path class="cls-5" d="M114.5,32.3Zm0-.1h0c0,.1-.1.1,0,0Z"/><polygon class="cls-5" points="114.5 32.3 114.5 32.2 114.5 32.2 114.5 32.2 114.5 32.2 114.5 32.2 114.5 32.3 114.5 32.3 114.5 32.2 114.5 32.2 114.5 32.3 114.5 32.3 114.5 32.2 114.5 32.2 114.5 32.3"/><path class="cls-5" d="M114.5,32.3Zm0-.1Z"/><path class="cls-5" d="M114.5,32.3Z"/><polygon class="cls-5" points="114.6 32.2 114.5 32.2 114.5 32.2 114.6 32.2 114.6 32.3 114.6 32.3 114.6 32.2 114.6 32.2"/><polygon class="cls-5" points="114.6 32.3 114.6 32.3 114.6 32.2 114.6 32.2 114.6 32.2 114.6 32.2 114.6 32.2 114.6 32.2 114.6 32.2 114.6 32.2 114.6 32.3 114.6 32.3"/><path class="cls-5" d="M114.6,32.3Zm0-.1Z"/><path class="cls-5" d="M38.9,10.1a2.78,2.78,0,0,1,2.9-2.9,2.66,2.66,0,0,1,2.3,1.2l-.8.5a1.81,1.81,0,0,0-1.5-.7,1.87,1.87,0,0,0-1.9,2,1.87,1.87,0,0,0,1.9,2,2,2,0,0,0,1.3-.5v-.9H41.5V9.9h2.7V12a2.93,2.93,0,0,1-2.3,1A2.86,2.86,0,0,1,38.9,10.1Z"/><path class="cls-5" d="M45.4,12.9V7.3h3.8v.9H46.3V9.6h2.8v.9H46.3v1.6h2.9V13l-3.8-.1Z"/><path class="cls-5" d="M52,12.9V8.2H50.3V7.3h4.4v.9H53v4.7Z"/><path class="cls-5" d="M58.1,12.9V7.3h1v5.6Z"/><path class="cls-5" d="M61.8,12.9V8.2H60.1V7.3h4.4v.9H62.8v4.7Z"/><path class="cls-5" d="M67.7,10.1a2.9,2.9,0,0,1,5.8,0A2.78,2.78,0,0,1,70.6,13,2.84,2.84,0,0,1,67.7,10.1Zm4.7,0a1.81,1.81,0,0,0-1.9-2,1.92,1.92,0,0,0-1.9,2,1.81,1.81,0,0,0,1.9,2A1.86,1.86,0,0,0,72.4,10.1Z"/><path class="cls-5" d="M78.5,12.9l-2.9-4v4h-1V7.3h1l2.9,3.9V7.3h1v5.6Z"/></svg>
